X: 49
T: Drunkard's Hiccoughs
T: Rye Whiskey
M:3/4
L:1/8
S:Viola "Mom" Ruth - Pioneer Western Folk Tunes (1948).
Z:AK/Fiddler's Companion
K:G
(GA)|:B2G2 (GE)|D2B,2D2|E2G2G2|B4(GA)|
B2G2 (GE)|D2B,2D2|E2G2A2|G4 (GA):|
|:G2A2 (Bc)|d2G2A2|B2c2B2|A4 (GA):|
B2G2(GE)|D2B,2D2|E2G2A2|G4 B,2||
|:C[CE] [CE][CE][CE][CE]|B,[B,D] [B,D][B,D][B,D][B,D]|
E[B,G] [B,2G2] [B,2G2]|[G4B4] B,2|C[CE] [CE][CE][CE][CE]|
B,[B,D] [B,D][B,D][B,D][B,D]|E2G2A2|[B,4G4]:|

%%sep 1 1 500
